svg/u1f647_1f3fd_200d_2642.svg

<svg viewBox="0 0 128 128" xmlns="http://www.w3.org/2000/svg">
  <defs>
    <radialGradient id="shirtShadow_1_" cx="63.888" cy="-261.595852" gradientTransform="matrix(1 0 0 -0.4142 0 0)" gradientUnits="userSpaceOnUse" r="38.6511">
      <stop offset="0.771" stop-color="#000000"/>
      <stop offset="1" stop-color="#000000" stop-opacity="0"/>
    </radialGradient>
    <linearGradient id="hand_2_" gradientTransform="matrix(1 0 0 -1 0 0)" gradientUnits="userSpaceOnUse" x1="61.8082" x2="40.443" y1="-118.773" y2="-118.773">
      <stop offset="0.5" stop-color="#BA8D68"/>
      <stop offset="1" stop-color="#A47B62"/>
    </linearGradient>
    <linearGradient id="hand_3_" gradientTransform="matrix(1 0 0 -1 0 0)" gradientUnits="userSpaceOnUse" x1="67.8082" x2="88.3217" y1="-118.773" y2="-118.773">
      <stop offset="0.5" stop-color="#BA8D68"/>
      <stop offset="1" stop-color="#A47B62"/>
    </linearGradient>
    <linearGradient id="SVGID_1_" gradientTransform="matrix(1 0 0 -1 0 0)" gradientUnits="userSpaceOnUse" x1="64.2273" x2="64.2273" y1="-75.5026" y2="-126.3422">
      <stop offset="0" stop-color="#00BFA5"/>
      <stop offset="0.4701" stop-color="#00B29A"/>
      <stop offset="1" stop-color="#009E89"/>
    </linearGradient>
    <radialGradient id="hairHighlights_1_" cx="63.7735" cy="-55.372544" gradientTransform="matrix(1 0 0 -1.0673 0 0)" gradientUnits="userSpaceOnUse" r="36.4178">
      <stop offset="0.7945" stop-color="#6D4C41" stop-opacity="0"/>
      <stop offset="1" stop-color="#6D4C41"/>
    </radialGradient>
  </defs>
  <path d="M113.05,91.9 C99.03,77.41 68.83,76.36 64.5,76.28 L64.5,76.27 C64.5,76.27 64.39,76.27 64.23,76.27 C64.07,76.27 63.96,76.27 63.96,76.27 L63.96,76.28 C59.63,76.36 29.42,77.41 15.41,91.9 C5.2,102.46 7.41,112.7 9.53,115.71 C13.54,121.39 24.28,123.96 24.28,123.96 L63.75,123.96 L64.71,123.96 L104.18,123.96 C104.18,123.96 114.92,121.39 118.93,115.71 C121.05,112.7 123.26,102.46 113.05,91.9 Z" fill="url(#SVGID_1_)"/>
  <path d="M64,87.08 L54.92,87.08 L54.92,97.06 C54.92,101.57 59.21,105.23 64,105.23 C68.79,105.23 73.08,101.57 73.08,97.06 L73.08,87.08 L64,87.08 Z" fill="#99674F"/>
  <path id="shirtShadow" d="M64,92.7 C36.74,92.7 27.81,103.76 27.81,103.76 L38.83,109.93 C39.61,110.46 39.9,111.47 39.51,112.32 L38.96,113.55 L54.04,124 L73.96,124 L89.04,113.55 L88.49,112.32 C88.1,111.47 88.39,110.46 89.17,109.93 L99.97,103.63 C99.97,103.64 91.26,92.7 64,92.7 Z" fill="url(#shirtShadow_1_)" opacity="0.2"/>
  <path id="hand_1_" d="M38.96,113.56 L42.27,113.76 C43.49,113.76 44.69,113.94 45.85,114.29 C49.45,115.39 57.39,118.16 61.7,119.26 C62.76,119.53 63.49,120.48 63.49,121.58 C63.49,122.24 63.22,122.84 62.79,123.27 C62.35,123.71 61.75,123.98 61.09,123.98 L34.56,123.98 L38.96,113.56 Z" fill="url(#hand_2_)"/>
  <path id="hand" d="M89.04,113.56 L85.73,113.76 C84.51,113.76 83.31,113.94 82.15,114.29 C78.55,115.39 70.62,118.16 66.31,119.26 C65.24,119.53 64.51,120.48 64.51,121.58 C64.51,122.24 64.78,122.84 65.21,123.27 C65.65,123.71 66.25,123.98 66.91,123.98 L93.37,123.98 L89.04,113.56 Z" fill="url(#hand_3_)"/>
  <path id="XMLID_4_" d="M50.628,16.507 L47.928,6.417 Q47.669,5.451 48.023,4.839 Q48.377,4.226 49.343,3.968 Q51.275,3.451 51.792,5.383 L54.492,15.473 Q54.751,16.439 54.397,17.051 Q54.043,17.664 53.077,17.922 Q51.145,18.439 50.628,16.507 Z" fill="#B0BEC5"/>
  <path id="XMLID_3_" d="M35.559,24.007 L28.899,17.467 Q27.472,16.066 28.873,14.639 Q29.574,13.925 30.281,13.919 Q30.988,13.912 31.701,14.613 L38.361,21.153 Q39.788,22.554 38.387,23.981 Q37.686,24.695 36.979,24.701 Q36.272,24.708 35.559,24.007 Z" fill="#B0BEC5"/>
  <path id="XMLID_2_" d="M88.897,22.005 L96.287,14.625 Q96.994,13.918 97.701,13.919 Q98.409,13.919 99.115,14.627 Q100.528,16.042 99.113,17.455 L91.723,24.835 Q91.016,25.542 90.309,25.541 Q89.601,25.541 88.895,24.833 Q87.482,23.418 88.897,22.005 Z" fill="#B0BEC5"/>
  <path id="XMLID_1_" d="M73.508,15.473 L76.208,5.383 Q76.466,4.417 77.079,4.063 Q77.691,3.709 78.657,3.968 Q80.589,4.485 80.072,6.417 L77.372,16.507 Q77.114,17.473 76.501,17.827 Q75.889,18.181 74.923,17.922 Q72.991,17.405 73.508,15.473 Z" fill="#B0BEC5"/>
  <path d="M89.94,60.58 L37.61,60.58 C31.97,60.58 27.35,65.05 27.35,70.52 C27.35,75.99 31.97,80.46 37.61,80.46 L89.94,80.46 C95.58,80.46 100.2,75.99 100.2,70.52 C100.2,65.05 95.58,60.58 89.94,60.58 Z" fill="#99674F"/>
  <path id="head" d="M63.77,25.42 L63.77,25.42 L63.77,25.42 C47.1,25.42 31.67,41.63 31.67,64.96 C31.67,88.16 47.57,99.63 63.77,99.63 C79.97,99.63 95.87,88.16 95.87,64.96 C95.87,41.63 80.44,25.42 63.77,25.42 Z" fill="#BA8D68"/>
  <path id="nose_1_" d="M67.47,83.88 C67.37,83.84 67.26,83.82 67.16,83.81 L60.39,83.81 C60.29,83.82 60.18,83.84 60.08,83.88 C59.47,84.11 59.13,84.69 59.42,85.3 C59.71,85.91 61.06,87.65 63.78,87.65 C66.5,87.65 67.85,85.92 68.14,85.3 C68.42,84.68 68.08,84.1 67.47,83.88 Z" fill="#99674F"/>
  <path d="M52.27,74.93 A4.93 4 0 1 1 42.41,74.93 A4.93 4 0 1 1 52.27,74.93 Z" fill="#49362E"/>
  <path d="M85.14,74.93 A4.93 4 0 1 1 75.28,74.93 A4.93 4 0 1 1 85.14,74.93 Z" fill="#49362E"/>
  <path d="M39.76,66.84 C42.94,62.33 50.42,62.18 54.17,66.02 C54.82,66.69 55.51,67.56 55.02,68.52 C54.48,69.59 53.37,69.42 52.46,69.05 C50.03,68.07 47.52,67.63 44.91,68.16 C43.78,68.39 42.81,68.86 41.74,69.23 C40.3,69.74 38.83,68.23 39.76,66.84 Z" fill="#613E31"/>
  <path d="M85.82,69.25 C83.59,68.28 81.33,67.72 78.87,68 C77.75,68.13 76.65,68.42 75.61,68.83 C74.78,69.16 73.89,69.69 73.03,69.11 C70.58,67.42 74.92,64.67 76.2,64.12 C78.96,62.93 82.25,63.04 84.92,64.43 C85.98,64.98 87.13,65.78 87.76,66.83 C88.55,68.13 87.37,69.88 85.82,69.25 Z" fill="#613E31"/>
  <path id="hair_7_" d="M63.79,20.15 L63.79,20.15 C63.78,20.15 63.78,20.15 63.77,20.15 C63.76,20.15 63.76,20.15 63.75,20.15 L63.75,20.15 C20.31,20.37 29.21,67.31 29.21,67.31 C29.21,67.31 31.16,72.15 32.05,74.29 C32.18,74.6 32.65,74.57 32.73,74.24 C33.66,70.31 37,56.4 38.68,52.17 C39.67,49.68 42.41,48.23 45.18,48.7 C49.44,49.43 56.22,50.33 63.7,50.33 C63.73,50.33 63.75,50.33 63.78,50.33 C63.81,50.33 63.83,50.33 63.86,50.33 C71.34,50.33 78.12,49.43 82.38,48.7 C85.15,48.23 87.88,49.67 88.88,52.17 C90.56,56.39 93.87,70.22 94.81,74.2 C94.89,74.52 95.36,74.56 95.49,74.25 L98.34,67.32 C98.33,67.3 107.23,20.37 63.79,20.15 Z" fill="#543930"/>
  <path id="hairHighlights" d="M98.33,67.3 C98.33,67.3 107.23,20.36 63.79,20.14 L63.79,20.14 C63.78,20.14 63.78,20.14 63.77,20.14 L63.77,20.14 C63.76,20.14 63.76,20.14 63.76,20.14 L63.76,20.14 C63.09,20.14 62.42,20.16 61.77,20.18 C60.48,20.23 59.23,20.33 58.03,20.46 C58.02,20.46 58,20.46 57.99,20.46 C57.9,20.47 57.82,20.48 57.74,20.49 C21.17,24.86 29.22,67.3 29.22,67.3 L32.07,74.24 C32.2,74.55 32.67,74.52 32.74,74.2 C33.68,70.23 37.01,56.37 38.68,52.16 C39.67,49.67 42.56,48.22 45.32,48.69 C49.56,49.42 56.32,50.32 63.78,50.32 C63.81,50.32 63.83,50.32 63.86,50.32 C63.89,50.32 63.91,50.32 63.94,50.32 C71.4,50.32 78.15,49.42 82.4,48.69 C85.16,48.22 87.89,49.66 88.87,52.16 C90.55,56.39 93.89,70.34 94.81,74.24 C94.89,74.56 95.35,74.59 95.48,74.29 C96.37,72.16 98.33,67.3 98.33,67.3 Z" fill="url(#hairHighlights_1_)"/>
</svg>

<svg viewBox="0 0 128 128" xmlns="http://www.w3.org/2000/svg">
  <g id="shirt">
    <linearGradient id="SVGID_1_" gradientTransform="matrix(1 0 0 -1 0 128)" gradientUnits="userSpaceOnUse" x1="64.2273" x2="64.2273" y1="52.4974" y2="1.6578">
      <stop offset="0" stop-color="#00BFA5"/>
      <stop offset="0.4701" stop-color="#00B29A"/>
      <stop offset="1" stop-color="#009E89"/>
    </linearGradient>
    <path d="M113.05,91.9C99.03,77.41,68.83,76.36,64.5,76.28v-0.01c0,0-0.11,0-0.27,0 c-0.16,0-0.27,0-0.27,0v0.01c-4.33,0.08-34.54,1.13-48.55,15.62c-10.21,10.56-8,20.8-5.88,23.81c4.01,5.68,14.75,8.25,14.75,8.25 h39.47h0.96h39.47c0,0,10.74-2.57,14.75-8.25C121.05,112.7,123.26,102.46,113.05,91.9z" fill="url(#SVGID_1_)"/>
  </g>
  <g id="neck_1_">
    <path d="M64,87.08h-9.08v9.98c0,4.51,4.29,8.17,9.08,8.17s9.08-3.66,9.08-8.17v-9.98L64,87.08z" fill="#99674F"/>
  </g>
  <radialGradient id="shirtShadow_1_" cx="63.888" cy="19.6562" gradientTransform="matrix(1 0 0 -0.4142 0 116.4946)" gradientUnits="userSpaceOnUse" r="38.6511">
    <stop offset="0.771" stop-color="#000000"/>
    <stop offset="1" stop-color="#000000" stop-opacity="0"/>
  </radialGradient>
  <path id="shirtShadow" d="M64,92.7 c-27.26,0-36.19,11.06-36.19,11.06l11.02,6.17c0.78,0.53,1.07,1.54,0.68,2.39l-0.55,1.23L54.04,124h19.92l15.08-10.45l-0.55-1.23 c-0.39-0.85-0.1-1.86,0.68-2.39l10.8-6.3C99.97,103.64,91.26,92.7,64,92.7z" enable-background="new " fill="url(#shirtShadow_1_)" opacity="0.2"/>
  <linearGradient id="hand_2_" gradientTransform="matrix(1 0 0 -1 0 128)" gradientUnits="userSpaceOnUse" x1="61.8082" x2="40.443" y1="9.227" y2="9.227">
    <stop offset="0.5" stop-color="#BA8D68"/>
    <stop offset="1" stop-color="#A47B62"/>
  </linearGradient>
  <path id="hand_1_" d="M38.96,113.56l3.31,0.2c1.22,0,2.42,0.18,3.58,0.53 c3.6,1.1,11.54,3.87,15.85,4.97c1.06,0.27,1.79,1.22,1.79,2.32c0,0.66-0.27,1.26-0.7,1.69c-0.44,0.44-1.04,0.71-1.7,0.71H34.56 L38.96,113.56z" fill="url(#hand_2_)"/>
  <linearGradient id="hand_3_" gradientTransform="matrix(1 0 0 -1 0 128)" gradientUnits="userSpaceOnUse" x1="67.8082" x2="88.3217" y1="9.227" y2="9.227">
    <stop offset="0.5" stop-color="#BA8D68"/>
    <stop offset="1" stop-color="#A47B62"/>
  </linearGradient>
  <path id="hand" d="M89.04,113.56l-3.31,0.2c-1.22,0-2.42,0.18-3.58,0.53 c-3.6,1.1-11.53,3.87-15.84,4.97c-1.07,0.27-1.8,1.22-1.8,2.32c0,0.66,0.27,1.26,0.7,1.69c0.44,0.44,1.04,0.71,1.7,0.71h26.46 L89.04,113.56z" fill="url(#hand_3_)"/>
  <g id="lines_1_">
    <line id="XMLID_4_" fill="none" stroke="#B0BEC5" stroke-linecap="round" stroke-miterlimit="10" stroke-width="4" x1="52.56" x2="49.86" y1="15.99" y2="5.9"/>
    <line id="XMLID_3_" fill="none" stroke="#B0BEC5" stroke-linecap="round" stroke-miterlimit="10" stroke-width="4" x1="36.96" x2="30.3" y1="22.58" y2="16.04"/>
    <line id="XMLID_2_" fill="none" stroke="#B0BEC5" stroke-linecap="round" stroke-miterlimit="10" stroke-width="4" x1="90.31" x2="97.7" y1="23.42" y2="16.04"/>
    <line id="XMLID_1_" fill="none" stroke="#B0BEC5" stroke-linecap="round" stroke-miterlimit="10" stroke-width="4" x1="75.44" x2="78.14" y1="15.99" y2="5.9"/>
  </g>
  <g id="ears">
    <path d="M89.94,60.58H37.61c-5.64,0-10.26,4.47-10.26,9.94s4.62,9.94,10.26,9.94h52.33 c5.64,0,10.26-4.47,10.26-9.94S95.58,60.58,89.94,60.58z" fill="#99674F"/>
  </g>
  <path id="head" d="M63.77,25.42L63.77,25.42L63.77,25.42c-16.67,0-32.1,16.21-32.1,39.54 c0,23.2,15.9,34.67,32.1,34.67s32.1-11.47,32.1-34.67C95.87,41.63,80.44,25.42,63.77,25.42z" fill="#BA8D68"/>
  <path id="nose_1_" d="M67.47,83.88c-0.1-0.04-0.21-0.06-0.31-0.07h-6.77c-0.1,0.01-0.21,0.03-0.31,0.07 c-0.61,0.23-0.95,0.81-0.66,1.42s1.64,2.35,4.36,2.35c2.72,0,4.07-1.73,4.36-2.35C68.42,84.68,68.08,84.1,67.47,83.88z" fill="#99674F"/>
  <g id="eyes_1_">
    <ellipse cx="47.34" cy="74.93" fill="#49362E" rx="4.93" ry="4"/>
    <ellipse cx="80.21" cy="74.93" fill="#49362E" rx="4.93" ry="4"/>
  </g>
  <g id="eyebrows_1_">
    <path d="M39.76,66.84c3.18-4.51,10.66-4.66,14.41-0.82c0.65,0.67,1.34,1.54,0.85,2.5 c-0.54,1.07-1.65,0.9-2.56,0.53c-2.43-0.98-4.94-1.42-7.55-0.89c-1.13,0.23-2.1,0.7-3.17,1.07C40.3,69.74,38.83,68.23,39.76,66.84z " fill="#613E31"/>
    <path d="M85.82,69.25c-2.23-0.97-4.49-1.53-6.95-1.25c-1.12,0.13-2.22,0.42-3.26,0.83 c-0.83,0.33-1.72,0.86-2.58,0.28c-2.45-1.69,1.89-4.44,3.17-4.99c2.76-1.19,6.05-1.08,8.72,0.31c1.06,0.55,2.21,1.35,2.84,2.4 C88.55,68.13,87.37,69.88,85.82,69.25z" fill="#613E31"/>
  </g>
  <g id="hairGroup">
    <path id="hair_7_" d="M63.79,20.15L63.79,20.15c-0.01,0-0.01,0-0.02,0c-0.01,0-0.01,0-0.02,0v0 c-43.44,0.22-34.54,47.16-34.54,47.16s1.95,4.84,2.84,6.98c0.13,0.31,0.6,0.28,0.68-0.05c0.93-3.93,4.27-17.84,5.95-22.07 c0.99-2.49,3.73-3.94,6.5-3.47c4.26,0.73,11.04,1.63,18.52,1.63c0.03,0,0.05,0,0.08,0c0.03,0,0.05,0,0.08,0 c7.48,0,14.26-0.9,18.52-1.63c2.77-0.47,5.5,0.97,6.5,3.47c1.68,4.22,4.99,18.05,5.93,22.03c0.08,0.32,0.55,0.36,0.68,0.05 l2.85-6.93C98.33,67.3,107.23,20.37,63.79,20.15z" fill="#543930"/>
    <radialGradient id="hairHighlights_1_" cx="63.7735" cy="79.1736" gradientTransform="matrix(1 0 0 -1.0673 0 143.6011)" gradientUnits="userSpaceOnUse" r="36.4178">
      <stop offset="0.7945" stop-color="#6D4C41" stop-opacity="0"/>
      <stop offset="1" stop-color="#6D4C41"/>
    </radialGradient>
    <path id="hairHighlights" d="M98.33,67.3c0,0,8.9-46.94-34.54-47.16v0 c-0.01,0-0.01,0-0.02,0h0c-0.01,0-0.01,0-0.01,0l0,0c-0.67,0-1.34,0.02-1.99,0.04c-1.29,0.05-2.54,0.15-3.74,0.28 c-0.01,0-0.03,0-0.04,0c-0.09,0.01-0.17,0.02-0.25,0.03C21.17,24.86,29.22,67.3,29.22,67.3l2.85,6.94c0.13,0.31,0.6,0.28,0.67-0.04 c0.94-3.97,4.27-17.83,5.94-22.04c0.99-2.49,3.88-3.94,6.64-3.47c4.24,0.73,11,1.63,18.46,1.63c0.03,0,0.05,0,0.08,0s0.05,0,0.08,0 c7.46,0,14.21-0.9,18.46-1.63c2.76-0.47,5.49,0.97,6.47,3.47c1.68,4.23,5.02,18.18,5.94,22.08c0.08,0.32,0.54,0.35,0.67,0.05 C96.37,72.16,98.33,67.3,98.33,67.3z" fill="url(#hairHighlights_1_)"/>
  </g>
</svg>
